32x32/apps/BinaryNinja.svg

<svg xmlns="http://www.w3.org/2000/svg" width="32" height="32" version="1">
 <circle style="opacity:0.2" cx="16" cy="17" r="14"/>
 <circle style="fill:#17191e" cx="16" cy="16" r="14"/>
 <path style="opacity:0.2" d="M 16,5 A 12,12 0 0 0 4,17 12,12 0 0 0 16,29 12,12 0 0 0 28,17 12,12 0 0 0 16,5 Z M 6.1015625,13 H 16.021484 26 v 3.345703 c 0,0.636545 -0.0063,1.186137 -0.121094,1.792969 -0.114799,0.606738 -0.410499,1.370512 -1.023437,1.916016 -1.225876,1.091004 -2.416473,0.924721 -3.816407,0.919921 -1.137936,-0.0039 -1.946831,0.0073 -2.884765,-0.341797 -0.937935,-0.349088 -1.69169,-1.260699 -2.023438,-1.939453 -0.04734,-0.09685 -0.06955,-0.127351 -0.0918,-0.162109 -0.0119,-0.0012 -0.0016,-4.36e-4 -0.01758,-0.002 -0.01548,-0.0015 -0.0052,-8.68e-4 -0.01758,-0.002 -0.0261,0.0373 -0.04362,0.05723 -0.09375,0.15039 -0.379896,0.705976 -0.852263,1.389621 -1.757812,1.822266 -0.61129,0.292054 -0.878356,0.281354 -1.275391,0.339844 -0.397034,0.05849 -0.824948,0.09811 -1.263672,0.125 -0.877447,0.05377 -1.610782,0.117595 -2.5429685,-0.08203 C 8.2125625,20.699126 7.0892962,20.180281 6.5253906,19.185547 5.9622295,18.192126 5.9763335,17.275676 6.0078125,16.253906 v -0.002 c 0,0 0,-0.002 0,-0.002 z"/>
 <path style="fill:#f54636" d="M 16 4 A 12 12 0 0 0 4 16 A 12 12 0 0 0 16 28 A 12 12 0 0 0 28 16 A 12 12 0 0 0 16 4 z M 6.1015625 12 L 16.021484 12 L 26 12 L 26 15.345703 C 26 15.982248 25.993698 16.53184 25.878906 17.138672 C 25.764107 17.74541 25.468407 18.509184 24.855469 19.054688 C 23.629593 20.145692 22.438996 19.979409 21.039062 19.974609 C 19.901126 19.970673 19.092231 19.981901 18.154297 19.632812 C 17.216362 19.283724 16.462607 18.372113 16.130859 17.693359 C 16.083522 17.596511 16.061314 17.566008 16.039062 17.53125 C 16.027158 17.530068 16.037485 17.530814 16.021484 17.529297 C 16.006006 17.52783 16.016331 17.528429 16.003906 17.527344 C 15.977806 17.56464 15.960287 17.584575 15.910156 17.677734 C 15.53026 18.38371 15.057893 19.067355 14.152344 19.5 C 13.541054 19.792054 13.273988 19.781354 12.876953 19.839844 C 12.479919 19.898334 12.052005 19.937954 11.613281 19.964844 C 10.735834 20.018615 10.002499 20.082439 9.0703125 19.882812 C 8.2125625 19.699126 7.0892962 19.180281 6.5253906 18.185547 C 5.9622295 17.192126 5.9763335 16.275676 6.0078125 15.253906 L 6.0078125 15.251953 C 6.0078125 15.251953 6.0078125 15.25 6.0078125 15.25 L 6.1015625 12 z"/>
 <path style="opacity:0.2" d="m 13.289601,18.694557 c 0.304284,-0.145378 0.594655,-0.470895 0.860147,-0.964268 0.513262,-0.953814 1.085626,-1.285221 2.060084,-1.19282 0.838846,0.07954 1.300882,0.42305 1.718616,1.277732 0.477934,0.97785 0.947258,1.152527 3.11678,1.160031 C 23.720768,18.984489 24,18.735974 24,16.345546 V 15 l -7.977887,2e-6 H 8.0442275 l -0.03808,1.312084 c -0.055716,1.806214 0.2538277,2.352245 1.4826387,2.615394 0.7966318,0.170598 3.2739868,0.01879 3.8008198,-0.232915 z"/>
 <path style="fill:#f4f4f7" d="m 13.289601,17.694557 c 0.304284,-0.145378 0.594655,-0.470895 0.860147,-0.964268 0.513262,-0.953814 1.085626,-1.285221 2.060084,-1.19282 0.838846,0.07954 1.300882,0.42305 1.718616,1.277732 0.477934,0.97785 0.947258,1.152527 3.11678,1.160031 C 23.720768,17.984489 24,17.735974 24,15.345546 V 14 l -7.977887,2e-6 H 8.0442275 l -0.03808,1.312084 c -0.055716,1.806214 0.2538277,2.352245 1.4826387,2.615394 0.7966318,0.170598 3.2739868,0.01879 3.8008198,-0.232915 z"/>
 <path style="fill:#f4f4f7;opacity:0.1" d="M 16 2 A 14 14 0 0 0 2 16 A 14 14 0 0 0 2.0214844 16.585938 A 14 14 0 0 1 16 3 A 14 14 0 0 1 29.978516 16.414062 A 14 14 0 0 0 30 16 A 14 14 0 0 0 16 2 z"/>
 <path style="opacity:0.2;fill:#f4f4f7" d="M 16 4 A 12 12 0 0 0 4 16 A 12 12 0 0 0 4.0195312 16.40625 A 12 12 0 0 1 16 5 A 12 12 0 0 1 27.980469 16.59375 A 12 12 0 0 0 28 16 A 12 12 0 0 0 16 4 z M 26 15.345703 C 26 15.982248 25.993698 16.53184 25.878906 17.138672 C 25.764107 17.74541 25.468407 18.509184 24.855469 19.054688 C 23.629593 20.145692 22.438996 19.979409 21.039062 19.974609 C 19.901127 19.970673 19.092231 19.981901 18.154297 19.632812 C 17.216362 19.283724 16.462607 18.372113 16.130859 17.693359 C 16.083522 17.596511 16.061314 17.566008 16.039062 17.53125 C 16.027158 17.530068 16.037485 17.530814 16.021484 17.529297 C 16.006006 17.52783 16.016331 17.528429 16.003906 17.527344 C 15.977806 17.56464 15.960287 17.584575 15.910156 17.677734 C 15.53026 18.38371 15.057893 19.067355 14.152344 19.5 C 13.541054 19.792054 13.273988 19.781354 12.876953 19.839844 C 12.479919 19.898334 12.052005 19.937954 11.613281 19.964844 C 10.735834 20.018615 10.002499 20.082439 9.0703125 19.882812 C 8.2125625 19.699126 7.0892962 19.180281 6.5253906 18.185547 C 6.1420107 17.509261 6.0347317 16.867532 6.0097656 16.205078 L 6.0078125 16.25 L 6.0078125 16.251953 L 6.0078125 16.253906 C 5.9763335 17.275676 5.9622295 18.192126 6.5253906 19.185547 C 7.0892962 20.180281 8.2125695 20.699219 9.0703125 20.882812 C 10.002499 21.082438 10.735834 21.018614 11.613281 20.964844 C 12.052005 20.937954 12.479919 20.898334 12.876953 20.839844 C 13.273988 20.781354 13.541054 20.792054 14.152344 20.5 C 15.057893 20.067355 15.53026 19.38371 15.910156 18.677734 C 15.960286 18.584574 15.977806 18.564644 16.003906 18.527344 C 16.016286 18.528476 16.006004 18.527797 16.021484 18.529297 C 16.037464 18.530861 16.027162 18.53005 16.039062 18.53125 C 16.061312 18.566008 16.083519 18.596509 16.130859 18.693359 C 16.462607 19.372113 17.216362 20.283725 18.154297 20.632812 C 19.092231 20.98191 19.901127 20.970709 21.039062 20.974609 C 22.438996 20.979409 23.629593 21.145692 24.855469 20.054688 C 25.468407 19.509184 25.764107 18.74541 25.878906 18.138672 C 25.9937 17.53184 26 16.982248 26 16.345703 L 26 15.345703 z"/>
</svg>

<svg xmlns="http://www.w3.org/2000/svg" width="32" height="32" version="1"><circle style="opacity:.2" cx="16" cy="17" r="14"/><circle style="fill:#17191e" cx="16" cy="16" r="14"/><path style="opacity:.2" d="M16 5A12 12 0 0 0 4 17a12 12 0 0 0 12 12 12 12 0 0 0 12-12A12 12 0 0 0 16 5zm-9.898 8H26v3.346c0 .636-.006 1.186-.121 1.793-.115.606-.41 1.37-1.024 1.916-1.225 1.09-2.416.924-3.816.92-1.138-.004-1.947.007-2.885-.342-.938-.35-1.691-1.26-2.023-1.94-.047-.096-.07-.127-.092-.162l-.018-.002-.017-.002c-.026.038-.044.057-.094.15-.38.707-.852 1.39-1.758 1.823-.611.292-.878.281-1.275.34-.397.058-.825.098-1.264.125-.877.054-1.61.117-2.543-.082-.857-.184-1.98-.703-2.545-1.697-.563-.994-.549-1.91-.517-2.932v-.004z"/><path style="fill:#f54636" d="M16 4A12 12 0 0 0 4 16a12 12 0 0 0 12 12 12 12 0 0 0 12-12A12 12 0 0 0 16 4zm-9.898 8H26v3.346c0 .636-.006 1.186-.121 1.793-.115.606-.41 1.37-1.024 1.916-1.225 1.09-2.416.924-3.816.92-1.138-.004-1.947.007-2.885-.342-.938-.35-1.691-1.26-2.023-1.94-.047-.096-.07-.127-.092-.162-.012 0-.002 0-.018-.002l-.017-.002c-.026.038-.044.058-.094.15-.38.707-.852 1.39-1.758 1.823-.61.292-.878.281-1.275.34-.397.058-.825.098-1.264.125-.877.054-1.61.117-2.543-.082-.857-.184-1.98-.703-2.545-1.697-.563-.994-.549-1.91-.517-2.932v-.004L6.102 12z"/><path style="opacity:.2" d="M13.29 18.695c.304-.146.594-.471.86-.965.513-.954 1.085-1.285 2.06-1.193.839.08 1.3.424 1.718 1.278.478.978.948 1.153 3.117 1.16 2.676.01 2.955-.239 2.955-2.63V15H8.044l-.038 1.312c-.056 1.806.254 2.352 1.483 2.615.796.171 3.274.02 3.8-.232z"/><path style="fill:#f4f4f7" d="M13.29 17.695c.304-.146.594-.471.86-.965.513-.954 1.085-1.285 2.06-1.193.839.08 1.3.424 1.718 1.278.478.978.948 1.153 3.117 1.16 2.676.01 2.955-.239 2.955-2.63V14H8.044l-.038 1.312c-.056 1.806.254 2.352 1.483 2.615.796.171 3.274.02 3.8-.232z"/><path style="fill:#f4f4f7;opacity:.1" d="M16 2A14 14 0 0 0 2 16a14 14 0 0 0 .021.586A14 14 0 0 1 16 3a14 14 0 0 1 13.979 13.414A14 14 0 0 0 30 16 14 14 0 0 0 16 2z"/><path style="opacity:.2;fill:#f4f4f7" d="M16 4A12 12 0 0 0 4 16a12 12 0 0 0 .02.406A12 12 0 0 1 16 5a12 12 0 0 1 11.98 11.594A12 12 0 0 0 28 16 12 12 0 0 0 16 4zm10 11.346c0 .636-.006 1.186-.121 1.793-.115.606-.41 1.37-1.024 1.916-1.225 1.09-2.416.924-3.816.92-1.138-.004-1.947.007-2.885-.342-.938-.35-1.691-1.26-2.023-1.94-.047-.096-.07-.127-.092-.162-.012 0-.002 0-.018-.002l-.017-.002c-.026.038-.044.058-.094.15-.38.707-.852 1.39-1.758 1.823-.61.292-.878.281-1.275.34-.397.058-.825.098-1.264.125-.877.054-1.61.117-2.543-.082-.857-.184-1.98-.703-2.545-1.697-.383-.677-.49-1.318-.515-1.98l-.002.044v.004c-.032 1.022-.046 1.938.517 2.932.564.994 1.688 1.513 2.545 1.697.932.2 1.666.136 2.543.082.439-.027.867-.067 1.264-.125.397-.059.664-.048 1.275-.34.906-.433 1.378-1.116 1.758-1.822.05-.093.068-.113.094-.15l.017.001.018.002c.022.035.045.066.092.162.332.68 1.085 1.59 2.023 1.94.938.349 1.747.338 2.885.342 1.4.004 2.59.17 3.816-.92.613-.546.91-1.31 1.024-1.916.115-.607.121-1.157.121-1.793v-1z"/></svg>
